material/.icons/material/garage-alert.svg

<svg xmlns="http://www.w3.org/2000/svg" viewBox="0 0 24 24"><path d="M17 20h-2v-9H5v9H3V9l7-4 7 4v11M6 12h8v2H6v-2m0 3h8v2H6v-2m13 0v-5h2v5h-2m0 4v-2h2v2h-2z"/></svg>

<?xml version="1.0" encoding="UTF-8"?><!DOCTYPE svg PUBLIC "-//W3C//DTD SVG 1.1//EN" "http://www.w3.org/Graphics/SVG/1.1/DTD/svg11.dtd"><svg xmlns="http://www.w3.org/2000/svg" xmlns:xlink="http://www.w3.org/1999/xlink" version="1.1" id="mdi-garage-alert" width="24" height="24" viewBox="0 0 24 24"><path d="M17,20H15V11H5V20H3V9L10,5L17,9V20M6,12H14V14H6V12M6,15H14V17H6V15M19,15V10H21V15H19M19,19V17H21V19H19Z" /></svg>
